src/static/airdrop.svg

<svg
  width="25"
  height="24"
  viewBox="0 0 25 24"
  fill="none"
  xmlns="http://www.w3.org/2000/svg"
>
  <path
    fill-rule="evenodd"
    clip-rule="evenodd"
    d="M9.56066 12L5.33535 7.77469C5.43131 7.63162 5.62642 7.44689 6.00698 7.25661C6.60625 6.95697 7.48662 6.75 8.5 6.75C9.51338 6.75 10.3937 6.95697 10.993 7.25661C11.6371 7.57867 11.75 7.88484 11.75 8V12H9.56066ZM8.05578 12.6164L3.96967 8.53033C3.82902 8.38968 3.75 8.19891 3.75 8C3.75 6.05415 4.80336 4.3497 6.39315 3.15736C7.9827 1.96519 10.1443 1.25 12.5 1.25C14.8557 1.25 17.0173 1.96519 18.6069 3.15736C20.1966 4.3497 21.25 6.05415 21.25 8C21.25 8.19891 21.171 8.38968 21.0303 8.53033L16.9442 12.6164C17.2885 12.9757 17.5 13.4631 17.5 14V20C17.5 21.1046 16.6046 22 15.5 22H9.5C8.39543 22 7.5 21.1046 7.5 20V14C7.5 13.4631 7.71153 12.9757 8.05578 12.6164ZM15.4393 12L19.6646 7.77469C19.5687 7.63162 19.3736 7.44689 18.993 7.25661C18.3937 6.95697 17.5134 6.75 16.5 6.75C15.4866 6.75 14.6063 6.95697 14.007 7.25661C13.3629 7.57867 13.25 7.88484 13.25 8V12H15.4393ZM14.25 14C14.25 14.4142 13.9142 14.75 13.5 14.75H11.5C11.0858 14.75 10.75 14.4142 10.75 14C10.75 13.5858 11.0858 13.25 11.5 13.25H13.5C13.9142 13.25 14.25 13.5858 14.25 14Z"
    fill="#D1D3D4"
  />
</svg>

<svg xmlns="http://www.w3.org/2000/svg" width="25" height="24" fill="none"><path fill="#D1D3D4" fill-rule="evenodd" d="M9.56 12 5.336 7.775c.096-.143.291-.328.672-.518.6-.3 1.48-.507 2.493-.507s1.894.207 2.493.507c.644.322.757.628.757.743v4H9.56Zm-1.504.616L3.97 8.53A.75.75 0 0 1 3.75 8c0-1.946 1.053-3.65 2.643-4.843C7.983 1.965 10.144 1.25 12.5 1.25c2.356 0 4.517.715 6.107 1.907C20.197 4.35 21.25 6.054 21.25 8a.75.75 0 0 1-.22.53l-4.086 4.086c.345.36.556.847.556 1.384v6a2 2 0 0 1-2 2h-6a2 2 0 0 1-2-2v-6c0-.537.212-1.024.556-1.384ZM15.439 12l4.226-4.225c-.096-.143-.291-.328-.672-.518-.6-.3-1.48-.507-2.493-.507s-1.894.207-2.493.507c-.644.322-.757.628-.757.743v4h2.19Zm-1.189 2a.75.75 0 0 1-.75.75h-2a.75.75 0 0 1 0-1.5h2a.75.75 0 0 1 .75.75Z" clip-rule="evenodd"/></svg>
